ES3T1/39/aimg/it-6.svg

<svg clip-rule="evenodd" fill-rule="evenodd" stroke-linejoin="round" stroke-miterlimit="2" viewBox="0 0 499 71" xmlns="http://www.w3.org/2000/svg"><g fill="#8bba62" fill-rule="nonzero"><path d="m.361-.536v.12h-.145v-.12zm-.145.204h.145v.014c0 .053-.024.106-.072.159l-.035.038c-.046.052-.07.098-.07.139 0 .06.038.09.114.09.049 0 .106-.014.169-.043v.11c-.065.02-.128.03-.19.03-.077 0-.138-.015-.183-.045-.044-.029-.067-.07-.067-.121 0-.047.027-.096.08-.146l.034-.032c.03-.029.05-.053.06-.073s.015-.046.015-.078z" transform="matrix(71.02629492 0 0 71.026342135 -1.15893014 55.98928976)"/><path d="m.672-.029c-.07.031-.154.047-.251.047-.118 0-.21-.033-.276-.1-.067-.067-.1-.16-.1-.279 0-.122.034-.216.1-.281.067-.066.162-.099.285-.099.079 0 .157.01.235.028v.118c-.088-.031-.162-.047-.222-.047-.076 0-.135.025-.176.073s-.062.117-.062.206c0 .087.022.155.067.204.044.049.106.073.185.073.071 0 .143-.018.215-.054z" transform="matrix(71.02629492 0 0 71.026342135 29.07620752 55.98928976)"/><path d="m.315.012c-.083 0-.15-.025-.199-.076-.049-.05-.074-.118-.074-.204 0-.087.025-.155.074-.205.05-.05.118-.075.203-.075s.153.025.203.075c.049.05.074.118.074.204 0 .088-.025.157-.075.206-.049.05-.118.075-.206.075zm.003-.09c.083 0 .124-.064.124-.191 0-.058-.011-.104-.033-.138s-.052-.051-.09-.051-.068.017-.09.051-.033.08-.033.139c0 .058.011.104.033.139.021.034.051.051.089.051zm-.092-.548.118-.157h.132l-.157.157z" transform="matrix(71.02629492 0 0 71.026342135 74.60586946 55.98928976)"/><path d="m.09 0v-.536h.139v.101c.042-.076.103-.113.181-.113.04 0 .073.01.099.029.026.02.042.048.048.084.05-.076.111-.113.182-.113.098 0 .147.054.147.162v.386h-.139v-.339c0-.063-.021-.095-.063-.095-.044 0-.086.031-.127.094v.34h-.139v-.339c0-.064-.021-.096-.064-.096-.042 0-.084.032-.125.095v.34z" transform="matrix(71.02629492 0 0 71.026342135 114.89876476 55.98928976)"/><path d="m.315.012c-.083 0-.15-.025-.199-.076-.049-.05-.074-.118-.074-.204 0-.087.025-.155.074-.205.05-.05.118-.075.203-.075s.153.025.203.075c.049.05.074.118.074.204 0 .088-.025.157-.075.206-.049.05-.118.075-.206.075zm.003-.09c.083 0 .124-.064.124-.191 0-.058-.011-.104-.033-.138s-.052-.051-.09-.051-.068.017-.09.051-.033.08-.033.139c0 .058.011.104.033.139.021.034.051.051.089.051z" transform="matrix(71.02629492 0 0 71.026342135 178.70471998 55.98928976)"/><path d="m.076-.017v-.106c.072.03.133.045.184.045.059 0 .089-.02.089-.061 0-.026-.025-.049-.074-.068l-.048-.02c-.053-.021-.091-.044-.114-.069s-.034-.055-.034-.092c0-.05.019-.09.058-.118.038-.028.093-.042.162-.042.044 0 .096.006.156.019v.101c-.058-.02-.106-.03-.144-.03-.06 0-.09.019-.09.056 0 .024.022.045.067.062l.042.016c.062.024.106.048.131.072.024.024.037.056.037.094 0 .051-.021.092-.063.123-.042.032-.096.047-.164.047-.064 0-.129-.01-.195-.029z" transform="matrix(71.02629492 0 0 71.026342135 237.33856 55.98928976)"/><path d="m.527-.018c-.069.02-.134.03-.195.03-.09 0-.161-.025-.212-.076-.052-.051-.078-.12-.078-.208 0-.083.024-.15.071-.2.047-.051.11-.076.188-.076s.136.024.172.074c.036.049.054.128.054.235h-.333c.01.102.066.153.169.153.048 0 .103-.011.164-.034zm-.335-.303h.193c0-.091-.03-.137-.089-.137-.06 0-.094.046-.104.137z" transform="matrix(71.02629492 0 0 71.026342135 272.4286864 55.98928976)"/><path d="m.486-.012c-.06.016-.116.024-.167.024-.085 0-.153-.025-.203-.075-.049-.051-.074-.119-.074-.206s.026-.156.077-.205c.051-.05.121-.074.212-.074.043 0 .093.007.15.021v.104c-.059-.019-.106-.029-.142-.029-.043 0-.078.017-.104.05-.027.033-.04.077-.04.132 0 .057.015.102.043.136.029.034.067.051.114.051.043 0 .088-.01.134-.029z" transform="matrix(71.02629492 0 0 71.026342135 327.3155296 55.98928976)"/><path d="m.422 0v-.101c-.047.075-.108.113-.183.113-.048 0-.085-.015-.113-.045s-.042-.072-.042-.124v-.379h.145v.343c0 .061.02.091.061.091.046 0 .09-.032.132-.097v-.337h.144v.536z" transform="matrix(71.02629492 0 0 71.026342135 360.0481078 55.98928976)"/><path d="m.09 0v-.536h.145v.101c.037-.076.094-.113.171-.113.009 0 .018.001.027.003v.128c-.021-.007-.04-.011-.058-.011-.057 0-.104.029-.14.088v.34z" transform="matrix(71.02629492 0 0 71.026342135 401.6200984 55.98928976)"/><path d="m.353-.058c-.048.047-.1.07-.155.07-.047 0-.085-.014-.114-.043-.029-.028-.044-.066-.044-.111 0-.059.024-.105.071-.137s.115-.048.203-.048h.039v-.049c0-.056-.032-.083-.095-.083-.057 0-.113.015-.171.047v-.099c.065-.025.13-.037.194-.037.141 0 .211.055.211.167v.237c0 .042.013.063.04.063.005 0 .011 0 .019-.002l.004.082c-.031.009-.058.013-.081.013-.06 0-.098-.023-.115-.07zm0-.077v-.109h-.034c-.094 0-.14.029-.14.088 0 .02.006.036.02.05.013.013.03.02.05.02.034 0 .069-.016.104-.049z" transform="matrix(71.02629492 0 0 71.026342135 428.840584 55.98928976)"/><path d="m.136 0v-.121h.145v.121zm.145-.205h-.145v-.013c0-.053.024-.106.072-.159l.035-.038c.047-.052.07-.098.07-.139 0-.06-.038-.091-.114-.091-.049 0-.105.015-.169.044v-.11c.065-.02.128-.03.19-.03.077 0 .138.015.183.045.045.029.067.07.067.121 0 .047-.027.096-.08.146l-.033.032c-.031.029-.051.053-.061.073s-.015.046-.015.078z" transform="matrix(71.02629492 0 0 71.026342135 465.5247028 55.98928976)"/></g></svg>

<?xml version="1.0" encoding="UTF-8" standalone="no"?>
<!DOCTYPE svg PUBLIC "-//W3C//DTD SVG 1.1//EN" "http://www.w3.org/Graphics/SVG/1.1/DTD/svg11.dtd">
<svg width="100%" height="100%" viewBox="0 0 499 71" version="1.1" xmlns="http://www.w3.org/2000/svg" xmlns:xlink="http://www.w3.org/1999/xlink" xml:space="preserve" xmlns:serif="http://www.serif.com/" style="fill-rule:evenodd;clip-rule:evenodd;stroke-linejoin:round;stroke-miterlimit:2;">
    <g transform="matrix(1,0,0,1,-1064,-2334)">
        <g transform="matrix(5.5734,0,0,4.76479,725.049,464.328)">
            <g transform="matrix(12.7438,0,0,14.9065,60.6079,404.144)">
                <path d="M0.361,-0.536L0.361,-0.416L0.216,-0.416L0.216,-0.536L0.361,-0.536ZM0.216,-0.332L0.361,-0.332L0.361,-0.318C0.361,-0.265 0.337,-0.212 0.289,-0.159L0.254,-0.121C0.208,-0.069 0.184,-0.023 0.184,0.018C0.184,0.078 0.222,0.108 0.298,0.108C0.347,0.108 0.404,0.094 0.467,0.065L0.467,0.175C0.402,0.195 0.339,0.205 0.277,0.205C0.2,0.205 0.139,0.19 0.094,0.16C0.05,0.131 0.027,0.09 0.027,0.039C0.027,-0.008 0.054,-0.057 0.107,-0.107L0.141,-0.139C0.171,-0.168 0.191,-0.192 0.201,-0.212C0.211,-0.232 0.216,-0.258 0.216,-0.29L0.216,-0.332Z" style="fill:rgb(139,186,98);fill-rule:nonzero;"/>
            </g>
            <g transform="matrix(12.7438,0,0,14.9065,66.0328,404.144)">
                <path d="M0.672,-0.029C0.602,0.002 0.518,0.018 0.421,0.018C0.303,0.018 0.211,-0.015 0.145,-0.082C0.078,-0.149 0.045,-0.242 0.045,-0.361C0.045,-0.483 0.079,-0.577 0.145,-0.642C0.212,-0.708 0.307,-0.741 0.43,-0.741C0.509,-0.741 0.587,-0.731 0.665,-0.713L0.665,-0.595C0.577,-0.626 0.503,-0.642 0.443,-0.642C0.367,-0.642 0.308,-0.617 0.267,-0.569C0.226,-0.521 0.205,-0.452 0.205,-0.363C0.205,-0.276 0.227,-0.208 0.272,-0.159C0.316,-0.11 0.378,-0.086 0.457,-0.086C0.528,-0.086 0.6,-0.104 0.672,-0.14L0.672,-0.029Z" style="fill:rgb(139,186,98);fill-rule:nonzero;"/>
            </g>
            <g transform="matrix(12.7438,0,0,14.9065,74.2019,404.144)">
                <path d="M0.315,0.012C0.232,0.012 0.165,-0.013 0.116,-0.064C0.067,-0.114 0.042,-0.182 0.042,-0.268C0.042,-0.355 0.067,-0.423 0.116,-0.473C0.166,-0.523 0.234,-0.548 0.319,-0.548C0.404,-0.548 0.472,-0.523 0.522,-0.473C0.571,-0.423 0.596,-0.355 0.596,-0.269C0.596,-0.181 0.571,-0.112 0.521,-0.063C0.472,-0.013 0.403,0.012 0.315,0.012ZM0.318,-0.078C0.401,-0.078 0.442,-0.142 0.442,-0.269C0.442,-0.327 0.431,-0.373 0.409,-0.407C0.387,-0.441 0.357,-0.458 0.319,-0.458C0.281,-0.458 0.251,-0.441 0.229,-0.407C0.207,-0.373 0.196,-0.327 0.196,-0.268C0.196,-0.21 0.207,-0.164 0.229,-0.129C0.25,-0.095 0.28,-0.078 0.318,-0.078ZM0.226,-0.626L0.344,-0.783L0.476,-0.783L0.319,-0.626L0.226,-0.626Z" style="fill:rgb(139,186,98);fill-rule:nonzero;"/>
            </g>
            <g transform="matrix(12.7438,0,0,14.9065,81.4314,404.144)">
                <path d="M0.09,0L0.09,-0.536L0.229,-0.536L0.229,-0.435C0.271,-0.511 0.332,-0.548 0.41,-0.548C0.45,-0.548 0.483,-0.538 0.509,-0.519C0.535,-0.499 0.551,-0.471 0.557,-0.435C0.607,-0.511 0.668,-0.548 0.739,-0.548C0.837,-0.548 0.886,-0.494 0.886,-0.386L0.886,0L0.747,0L0.747,-0.339C0.747,-0.402 0.726,-0.434 0.684,-0.434C0.64,-0.434 0.598,-0.403 0.557,-0.34L0.557,0L0.418,0L0.418,-0.339C0.418,-0.403 0.397,-0.435 0.354,-0.435C0.312,-0.435 0.27,-0.403 0.229,-0.34L0.229,0L0.09,0Z" style="fill:rgb(139,186,98);fill-rule:nonzero;"/>
            </g>
            <g transform="matrix(12.7438,0,0,14.9065,92.8797,404.144)">
                <path d="M0.315,0.012C0.232,0.012 0.165,-0.013 0.116,-0.064C0.067,-0.114 0.042,-0.182 0.042,-0.268C0.042,-0.355 0.067,-0.423 0.116,-0.473C0.166,-0.523 0.234,-0.548 0.319,-0.548C0.404,-0.548 0.472,-0.523 0.522,-0.473C0.571,-0.423 0.596,-0.355 0.596,-0.269C0.596,-0.181 0.571,-0.112 0.521,-0.063C0.472,-0.013 0.403,0.012 0.315,0.012ZM0.318,-0.078C0.401,-0.078 0.442,-0.142 0.442,-0.269C0.442,-0.327 0.431,-0.373 0.409,-0.407C0.387,-0.441 0.357,-0.458 0.319,-0.458C0.281,-0.458 0.251,-0.441 0.229,-0.407C0.207,-0.373 0.196,-0.327 0.196,-0.268C0.196,-0.21 0.207,-0.164 0.229,-0.129C0.25,-0.095 0.28,-0.078 0.318,-0.078Z" style="fill:rgb(139,186,98);fill-rule:nonzero;"/>
            </g>
            <g transform="matrix(12.7438,0,0,14.9065,103.4,404.144)">
                <path d="M0.076,-0.017L0.076,-0.123C0.148,-0.093 0.209,-0.078 0.26,-0.078C0.319,-0.078 0.349,-0.098 0.349,-0.139C0.349,-0.165 0.324,-0.188 0.275,-0.207L0.227,-0.227C0.174,-0.248 0.136,-0.271 0.113,-0.296C0.09,-0.321 0.079,-0.351 0.079,-0.388C0.079,-0.438 0.098,-0.478 0.137,-0.506C0.175,-0.534 0.23,-0.548 0.299,-0.548C0.343,-0.548 0.395,-0.542 0.455,-0.529L0.455,-0.428C0.397,-0.448 0.349,-0.458 0.311,-0.458C0.251,-0.458 0.221,-0.439 0.221,-0.402C0.221,-0.378 0.243,-0.357 0.288,-0.34L0.33,-0.324C0.392,-0.3 0.436,-0.276 0.461,-0.252C0.485,-0.228 0.498,-0.196 0.498,-0.158C0.498,-0.107 0.477,-0.066 0.435,-0.035C0.393,-0.003 0.339,0.012 0.271,0.012C0.207,0.012 0.142,0.002 0.076,-0.017Z" style="fill:rgb(139,186,98);fill-rule:nonzero;"/>
            </g>
            <g transform="matrix(12.7438,0,0,14.9065,109.696,404.144)">
                <path d="M0.527,-0.018C0.458,0.002 0.393,0.012 0.332,0.012C0.242,0.012 0.171,-0.013 0.12,-0.064C0.068,-0.115 0.042,-0.184 0.042,-0.272C0.042,-0.355 0.066,-0.422 0.113,-0.472C0.16,-0.523 0.223,-0.548 0.301,-0.548C0.379,-0.548 0.437,-0.524 0.473,-0.474C0.509,-0.425 0.527,-0.346 0.527,-0.239L0.194,-0.239C0.204,-0.137 0.26,-0.086 0.363,-0.086C0.411,-0.086 0.466,-0.097 0.527,-0.12L0.527,-0.018ZM0.192,-0.321L0.385,-0.321C0.385,-0.412 0.355,-0.458 0.296,-0.458C0.236,-0.458 0.202,-0.412 0.192,-0.321Z" style="fill:rgb(139,186,98);fill-rule:nonzero;"/>
            </g>
            <g transform="matrix(12.7438,0,0,14.9065,119.544,404.144)">
                <path d="M0.486,-0.012C0.426,0.004 0.37,0.012 0.319,0.012C0.234,0.012 0.166,-0.013 0.116,-0.063C0.067,-0.114 0.042,-0.182 0.042,-0.269C0.042,-0.356 0.068,-0.425 0.119,-0.474C0.17,-0.524 0.24,-0.548 0.331,-0.548C0.374,-0.548 0.424,-0.541 0.481,-0.527L0.481,-0.423C0.422,-0.442 0.375,-0.452 0.339,-0.452C0.296,-0.452 0.261,-0.435 0.235,-0.402C0.208,-0.369 0.195,-0.325 0.195,-0.27C0.195,-0.213 0.21,-0.168 0.238,-0.134C0.267,-0.1 0.305,-0.083 0.352,-0.083C0.395,-0.083 0.44,-0.093 0.486,-0.112L0.486,-0.012Z" style="fill:rgb(139,186,98);fill-rule:nonzero;"/>
            </g>
            <g transform="matrix(12.7438,0,0,14.9065,125.417,404.144)">
                <path d="M0.422,0L0.422,-0.101C0.375,-0.026 0.314,0.012 0.239,0.012C0.191,0.012 0.154,-0.003 0.126,-0.033C0.098,-0.063 0.084,-0.105 0.084,-0.157L0.084,-0.536L0.229,-0.536L0.229,-0.193C0.229,-0.132 0.249,-0.102 0.29,-0.102C0.336,-0.102 0.38,-0.134 0.422,-0.199L0.422,-0.536L0.566,-0.536L0.566,0L0.422,0Z" style="fill:rgb(139,186,98);fill-rule:nonzero;"/>
            </g>
            <g transform="matrix(12.7438,0,0,14.9065,132.876,404.144)">
                <path d="M0.09,0L0.09,-0.536L0.235,-0.536L0.235,-0.435C0.272,-0.511 0.329,-0.548 0.406,-0.548C0.415,-0.548 0.424,-0.547 0.433,-0.545L0.433,-0.417C0.412,-0.424 0.393,-0.428 0.375,-0.428C0.318,-0.428 0.271,-0.399 0.235,-0.34L0.235,0L0.09,0Z" style="fill:rgb(139,186,98);fill-rule:nonzero;"/>
            </g>
            <g transform="matrix(12.7438,0,0,14.9065,137.76,404.144)">
                <path d="M0.353,-0.058C0.305,-0.011 0.253,0.012 0.198,0.012C0.151,0.012 0.113,-0.002 0.084,-0.031C0.055,-0.059 0.04,-0.097 0.04,-0.142C0.04,-0.201 0.064,-0.247 0.111,-0.279C0.158,-0.311 0.226,-0.327 0.314,-0.327L0.353,-0.327L0.353,-0.376C0.353,-0.432 0.321,-0.459 0.258,-0.459C0.201,-0.459 0.145,-0.444 0.087,-0.412L0.087,-0.511C0.152,-0.536 0.217,-0.548 0.281,-0.548C0.422,-0.548 0.492,-0.493 0.492,-0.381L0.492,-0.144C0.492,-0.102 0.505,-0.081 0.532,-0.081C0.537,-0.081 0.543,-0.081 0.551,-0.083L0.555,-0.001C0.524,0.008 0.497,0.012 0.474,0.012C0.414,0.012 0.376,-0.011 0.359,-0.058L0.353,-0.058ZM0.353,-0.135L0.353,-0.244L0.319,-0.244C0.225,-0.244 0.179,-0.215 0.179,-0.156C0.179,-0.136 0.185,-0.12 0.199,-0.106C0.212,-0.093 0.229,-0.086 0.249,-0.086C0.283,-0.086 0.318,-0.102 0.353,-0.135Z" style="fill:rgb(139,186,98);fill-rule:nonzero;"/>
            </g>
            <g transform="matrix(12.7438,0,0,14.9065,144.342,404.144)">
                <path d="M0.136,0L0.136,-0.121L0.281,-0.121L0.281,0L0.136,0ZM0.281,-0.205L0.136,-0.205L0.136,-0.218C0.136,-0.271 0.16,-0.324 0.208,-0.377L0.243,-0.415C0.29,-0.467 0.313,-0.513 0.313,-0.554C0.313,-0.614 0.275,-0.645 0.199,-0.645C0.15,-0.645 0.094,-0.63 0.03,-0.601L0.03,-0.711C0.095,-0.731 0.158,-0.741 0.22,-0.741C0.297,-0.741 0.358,-0.726 0.403,-0.696C0.448,-0.667 0.47,-0.626 0.47,-0.575C0.47,-0.528 0.443,-0.479 0.39,-0.429L0.357,-0.397C0.326,-0.368 0.306,-0.344 0.296,-0.324C0.286,-0.304 0.281,-0.278 0.281,-0.246L0.281,-0.205Z" style="fill:rgb(139,186,98);fill-rule:nonzero;"/>
            </g>
        </g>
    </g>
</svg>
